static/icons/stratum.svg

<svg width="219" height="158" viewBox="0 0 219 158" fill="none" xmlns="http://www.w3.org/2000/svg">
<path d="M6.63644 156.924C4.31752 156.924 2.63935 156.398 1.57905 155.345C0.526386 154.285 0 152.614 0 150.326C0 150.097 0.0763175 149.907 0.228878 149.754C0.381439 149.602 0.572139 149.525 0.80098 149.525C1.02982 149.525 1.22052 149.602 1.37308 149.754C1.52564 149.907 1.60196 150.097 1.60196 150.326C1.60196 152.18 1.97571 153.476 2.72326 154.216C3.47843 154.956 4.7752 155.322 6.63644 155.322H12.1286C13.9822 155.322 15.2866 154.956 16.0341 154.216C16.7893 153.476 17.1631 152.18 17.1631 150.326C17.1631 148.473 16.7893 147.176 16.0341 146.436C15.2866 145.697 13.9822 145.33 12.1286 145.33H6.75088C4.56164 145.33 2.96736 144.835 1.96046 143.843C0.961184 142.852 0.457756 141.265 0.457756 139.076C0.457756 136.887 0.961184 135.301 1.96046 134.309C2.96736 133.318 4.54634 132.822 6.7127 132.822H12.3193C14.478 132.822 16.0647 133.318 17.064 134.309C18.0709 135.301 18.5743 136.879 18.5743 139.038C18.5743 139.267 18.498 139.457 18.3454 139.61C18.1929 139.763 18.0022 139.839 17.7733 139.839C17.5445 139.839 17.3538 139.763 17.2012 139.61C17.0487 139.457 16.9724 139.267 16.9724 139.038C16.9724 137.337 16.6216 136.14 15.9198 135.453C15.2256 134.767 14.0203 134.423 12.3193 134.423H6.7127C5.00402 134.423 3.80644 134.767 3.10466 135.453C2.41051 136.14 2.05962 137.352 2.05962 139.076C2.05962 140.807 2.41051 142.013 3.10466 142.699C3.80644 143.386 5.01932 143.729 6.75088 143.729H12.1286C14.4399 143.729 16.1257 144.255 17.1783 145.315C18.2386 146.368 18.765 148.038 18.765 150.326C18.765 152.614 18.2386 154.285 17.1783 155.345C16.1257 156.398 14.4399 156.924 12.1286 156.924H6.63644Z" fill="#5BEBF3"/>
<path d="M32.3432 157.001C32.1144 157.001 31.9237 156.924 31.7711 156.772C31.6185 156.619 31.5423 156.429 31.5423 156.2V134.386H23.1896C22.9607 134.386 22.77 134.31 22.6175 134.157C22.4649 134.005 22.3887 133.814 22.3887 133.585C22.3887 133.356 22.4649 133.166 22.6175 133.013C22.77 132.86 22.9607 132.784 23.1896 132.784H41.4968C41.7257 132.784 41.9164 132.86 42.0689 133.013C42.2215 133.166 42.2978 133.356 42.2978 133.585C42.2978 133.814 42.2215 134.005 42.0689 134.157C41.9164 134.31 41.7257 134.386 41.4968 134.386H33.1442V156.2C33.1442 156.429 33.0679 156.619 32.9153 156.772C32.7627 156.924 32.572 157.001 32.3432 157.001Z" fill="#5BEBF3"/>
<path d="M65.0669 155.894C65.189 156.1 65.2576 156.268 65.2576 156.39C65.2576 156.649 65.1126 156.848 64.838 157C64.655 157.099 64.4948 157.153 64.3423 157.153C64.0829 157.153 63.8846 157.031 63.732 156.771L57.3626 146.78H49.8109V156.161C49.8109 156.695 49.5438 156.962 49.0099 156.962C48.4759 156.962 48.209 156.695 48.209 156.161V133.623C48.209 133.089 48.4759 132.822 49.0099 132.822H57.9347C60.0401 132.822 61.642 133.363 62.7175 134.446C63.8007 135.522 64.3423 137.116 64.3423 139.229V140.373C64.3423 144.163 62.6335 146.269 59.2314 146.703L65.0669 155.894ZM49.8109 145.178H57.9347C59.5824 145.178 60.8029 144.789 61.5733 144.019C62.3514 143.241 62.7403 142.028 62.7403 140.373V139.229C62.7403 137.581 62.3514 136.361 61.5733 135.59C60.8029 134.812 59.5824 134.423 57.9347 134.423H49.8109V145.178Z" fill="#5BEBF3"/>
<path d="M90.7741 155.818C90.8504 155.97 90.8886 156.115 90.8886 156.237C90.8886 156.52 90.7055 156.733 90.3546 156.886C90.2021 156.939 90.0724 156.962 89.9732 156.962C89.691 156.962 89.4774 156.802 89.3249 156.466L86.6169 150.097C86.5406 150.128 86.4109 150.136 86.2355 150.136H74.2213C74.0917 150.136 74.0002 150.128 73.9544 150.097L71.2083 156.466C71.0558 156.802 70.8269 156.962 70.5218 156.962C70.4684 156.962 70.3387 156.939 70.1404 156.886C69.8047 156.733 69.6445 156.504 69.6445 156.199C69.6445 156.146 69.6674 156.024 69.7208 155.818L79.294 133.432C79.4466 133.028 79.7516 132.822 80.2093 132.822H80.3238C80.7509 132.822 81.056 133.028 81.2391 133.432L90.7741 155.818ZM74.6409 148.534H85.9304L80.3238 135.339L74.6409 148.534Z" fill="#5BEBF3"/>
<path d="M101.033 157.001C100.804 157.001 100.613 156.924 100.461 156.772C100.308 156.619 100.232 156.429 100.232 156.2V134.386H91.8791C91.6503 134.386 91.4596 134.31 91.307 134.157C91.1544 134.005 91.0781 133.814 91.0781 133.585C91.0781 133.356 91.1544 133.166 91.307 133.013C91.4596 132.86 91.6503 132.784 91.8791 132.784H110.186C110.415 132.784 110.606 132.86 110.758 133.013C110.911 133.166 110.987 133.356 110.987 133.585C110.987 133.814 110.911 134.005 110.758 134.157C110.606 134.31 110.415 134.386 110.186 134.386H101.834V156.2C101.834 156.429 101.757 156.619 101.605 156.772C101.452 156.924 101.262 157.001 101.033 157.001Z" fill="#5BEBF3"/>
<path d="M124.26 156.962C121.56 156.962 119.599 156.344 118.364 155.116C117.135 153.881 116.518 151.92 116.518 149.22V133.623C116.518 133.394 116.594 133.203 116.746 133.051C116.899 132.898 117.09 132.822 117.319 132.822C117.547 132.822 117.738 132.898 117.891 133.051C118.043 133.203 118.12 133.394 118.12 133.623V149.22C118.12 151.463 118.585 153.042 119.508 153.972C120.438 154.895 122.017 155.36 124.26 155.36H128.837C131.095 155.36 132.689 154.895 133.604 153.972C134.52 153.042 134.977 151.463 134.977 149.22V133.623C134.977 133.394 135.054 133.203 135.206 133.051C135.359 132.898 135.55 132.822 135.778 132.822C136.007 132.822 136.198 132.898 136.35 133.051C136.503 133.203 136.579 133.394 136.579 133.623V149.22C136.579 151.92 135.969 153.881 134.749 155.116C133.528 156.344 131.553 156.962 128.837 156.962H124.26Z" fill="#5BEBF3"/>
<path d="M166.596 132.822C167.1 132.822 167.359 133.089 167.359 133.623V156.161C167.359 156.695 167.092 156.962 166.558 156.962C166.024 156.962 165.757 156.695 165.757 156.161V136.063L157.137 149.335C156.931 149.693 156.611 149.869 156.184 149.869C155.749 149.869 155.429 149.693 155.23 149.335L146.573 136.025V156.161C146.573 156.695 146.306 156.962 145.772 156.962C145.238 156.962 144.971 156.695 144.971 156.161V133.623C144.971 133.089 145.238 132.822 145.772 132.822C146.199 132.822 146.519 133.005 146.725 133.356L156.184 147.924L165.643 133.356C165.841 133.005 166.161 132.822 166.596 132.822Z" fill="#5BEBF3"/>
<path d="M184.79 156.962C184.127 156.962 183.608 156.543 183.226 155.704L173.806 133.394C173.676 133.066 173.615 132.784 173.615 132.555C173.615 132.021 173.92 131.617 174.531 131.335C174.836 131.182 175.141 131.106 175.446 131.106C176.056 131.106 176.483 131.449 176.743 132.136L185.095 151.89L193.219 132.136C193.494 131.449 193.929 131.106 194.516 131.106C194.791 131.106 195.096 131.182 195.431 131.335C196.011 131.617 196.309 132.052 196.309 132.631C196.309 132.914 196.255 133.165 196.156 133.394L186.659 155.704C186.247 156.543 185.675 156.962 184.943 156.962H184.79Z" fill="#5BEBF3"/>
<path d="M202.829 156.962C202.295 156.962 201.883 156.833 201.608 156.566C201.326 156.299 201.189 155.895 201.189 155.361C201.189 153.278 201.609 151.532 202.448 150.121C203.287 148.71 204.21 147.634 205.232 146.894C206.246 146.162 207.642 145.277 209.427 144.263C211.281 143.218 212.585 142.455 213.333 141.96C214.088 141.464 214.683 140.915 215.125 140.32C215.575 139.717 215.797 139 215.797 138.161C215.797 137.147 215.682 136.361 215.453 135.82C215.224 135.27 214.836 134.881 214.286 134.653C213.745 134.424 212.959 134.309 211.944 134.309H207.863C206.643 134.309 205.75 134.477 205.194 134.805C204.629 135.141 204.278 135.72 204.126 136.559C204.019 137.093 203.844 137.49 203.592 137.742C203.332 138.001 202.951 138.123 202.448 138.123C201.914 138.123 201.502 137.978 201.227 137.688C200.945 137.391 200.83 136.979 200.884 136.445C201.158 134.637 201.876 133.303 203.02 132.425C204.164 131.548 205.773 131.106 207.863 131.106H211.944C214.332 131.106 216.109 131.686 217.261 132.845C218.421 133.997 219 135.774 219 138.161C219 139.587 218.649 140.815 217.948 141.845C217.253 142.875 216.407 143.721 215.415 144.377C214.424 145.041 212.944 145.933 210.991 147.047C209.511 147.886 208.413 148.557 207.688 149.053C206.963 149.549 206.3 150.182 205.69 150.96C205.079 151.73 204.683 152.668 204.507 153.759H217.093C217.597 153.759 217.994 153.896 218.276 154.178C218.55 154.461 218.695 154.85 218.695 155.361C218.695 155.872 218.55 156.268 218.276 156.543C217.994 156.825 217.597 156.962 217.093 156.962H202.829Z" fill="#5BEBF3"/>
<path d="M66.0645 74.5657L83.0684 66.3118L100.072 74.5658M66.0645 74.5657L100.072 91.0736L100.072 74.5658M66.0645 74.5657V91.0743L117.076 115.837V65.8381L83.0684 49.804M100.072 74.5658L66.0645 58.0585V8.5344M151.084 49.8035L151.084 33.2956L134.08 41.5496M151.084 49.8035L134.08 41.5496M151.084 49.8035L117.076 66.3119L83.0684 49.804M134.08 41.5496L117.076 49.8041M83.0684 33.2961L100.072 41.5501M83.0684 33.2961L83.0684 49.804M83.0684 33.2961L117.076 49.8041M100.072 41.5501L83.0684 49.804M100.072 41.5501L117.076 49.8041M117.076 49.8041L117.076 33.2964M117.076 33.2964L66.0645 8.5344M117.076 33.2964L168.166 8.49664L153.037 1.15288L117.076 18.6089L81.2712 1.15283L66.0645 8.5344M151.085 66.3126L134.081 74.5666L134.081 91.0746L168.089 74.5667L151.085 66.3126ZM168.087 91.4755L117.075 114.768V65.1738L151.083 50.1164V33.742L117.075 49.2699V32.8956L168.087 9.60382V58.7269L134.079 74.2545V90.6289L168.087 75.1011V91.4755Z" stroke="#5BEBF3" stroke-width="2" stroke-miterlimit="1.5" stroke-linecap="round" stroke-linejoin="round"/>
</svg>

<svg width="219" height="158" fill="none" xmlns="http://www.w3.org/2000/svg"><path d="M6.636 156.924c-2.318 0-3.997-.526-5.057-1.579C.526 154.285 0 152.614 0 150.326c0-.229.076-.419.229-.572a.779.779 0 0 1 .572-.229.779.779 0 0 1 .801.801c0 1.854.374 3.15 1.121 3.89.755.74 2.052 1.106 3.913 1.106h5.493c1.853 0 3.158-.366 3.905-1.106.755-.74 1.13-2.036 1.13-3.89 0-1.853-.375-3.15-1.13-3.89-.747-.739-2.052-1.106-3.905-1.106H6.75c-2.19 0-3.784-.495-4.79-1.487-1-.991-1.503-2.578-1.503-4.767 0-2.189.503-3.775 1.502-4.767 1.007-.991 2.586-1.487 4.753-1.487h5.606c2.159 0 3.746.496 4.745 1.487 1.007.992 1.51 2.57 1.51 4.729a.776.776 0 0 1-.229.572.774.774 0 0 1-.572.229.775.775 0 0 1-.572-.229.777.777 0 0 1-.229-.572c0-1.701-.35-2.898-1.052-3.585-.694-.686-1.9-1.03-3.6-1.03H6.712c-1.709 0-2.907.344-3.608 1.03-.694.687-1.045 1.899-1.045 3.623 0 1.731.35 2.937 1.045 3.623.701.687 1.914 1.03 3.646 1.03h5.378c2.31 0 3.997.526 5.05 1.586 1.06 1.053 1.586 2.723 1.586 5.011 0 2.288-.526 3.959-1.587 5.019-1.052 1.053-2.738 1.579-5.05 1.579h-5.49Zm25.707.077a.779.779 0 0 1-.8-.801v-21.814H23.19a.774.774 0 0 1-.573-.229.775.775 0 0 1-.228-.572c0-.229.076-.419.229-.572a.774.774 0 0 1 .572-.229h18.307c.229 0 .42.076.572.229a.776.776 0 0 1 .229.572c0 .229-.077.42-.23.572a.774.774 0 0 1-.571.229h-8.353V156.2a.779.779 0 0 1-.801.801Zm32.724-1.107c.122.206.19.374.19.496 0 .259-.144.458-.419.61-.183.099-.343.153-.496.153-.26 0-.457-.122-.61-.382l-6.37-9.991h-7.551v9.381c0 .534-.267.801-.801.801s-.801-.267-.801-.801v-22.538c0-.534.267-.801.8-.801h8.926c2.105 0 3.707.541 4.782 1.624 1.084 1.076 1.625 2.67 1.625 4.783v1.144c0 3.79-1.709 5.896-5.11 6.33l5.835 9.191ZM49.81 145.178h8.124c1.647 0 2.868-.389 3.638-1.159.778-.778 1.167-1.991 1.167-3.646v-1.144c0-1.648-.389-2.868-1.167-3.639-.77-.778-1.99-1.167-3.638-1.167H49.81v10.755Zm40.964 10.64a.963.963 0 0 1 .115.419c0 .283-.183.496-.534.649a1.203 1.203 0 0 1-.382.076c-.282 0-.496-.16-.648-.496l-2.708-6.369c-.076.031-.206.039-.382.039H74.222c-.13 0-.22-.008-.267-.039l-2.746 6.369c-.152.336-.381.496-.686.496-.054 0-.183-.023-.382-.076-.335-.153-.496-.382-.496-.687 0-.053.023-.175.077-.381l9.573-22.386c.153-.404.458-.61.915-.61h.115c.427 0 .732.206.915.61l9.535 22.386Zm-16.133-7.284h11.29l-5.607-13.195-5.683 13.195Zm26.392 8.467a.777.777 0 0 1-.572-.229.775.775 0 0 1-.229-.572v-21.814h-8.353a.775.775 0 0 1-.572-.229.775.775 0 0 1-.229-.572c0-.229.076-.419.229-.572a.775.775 0 0 1 .572-.229h18.307c.229 0 .42.076.572.229a.775.775 0 0 1 .229.572c0 .229-.076.42-.229.572a.773.773 0 0 1-.572.229h-8.352V156.2a.779.779 0 0 1-.801.801Zm23.227-.039c-2.7 0-4.661-.618-5.896-1.846-1.229-1.235-1.846-3.196-1.846-5.896v-15.597a.777.777 0 0 1 .801-.801c.228 0 .419.076.572.229a.777.777 0 0 1 .229.572v15.597c0 2.243.465 3.822 1.388 4.752.93.923 2.509 1.388 4.752 1.388h4.577c2.258 0 3.852-.465 4.767-1.388.916-.93 1.373-2.509 1.373-4.752v-15.597c0-.229.077-.42.229-.572a.776.776 0 0 1 .572-.229c.229 0 .42.076.572.229a.773.773 0 0 1 .229.572v15.597c0 2.7-.61 4.661-1.83 5.896-1.221 1.228-3.196 1.846-5.912 1.846h-4.577Zm42.336-24.14c.504 0 .763.267.763.801v22.538c0 .534-.267.801-.801.801s-.801-.267-.801-.801v-20.098l-8.62 13.272c-.206.358-.526.534-.953.534-.435 0-.755-.176-.954-.534l-8.657-13.31v20.136c0 .534-.267.801-.801.801s-.801-.267-.801-.801v-22.538c0-.534.267-.801.801-.801.427 0 .747.183.953.534l9.459 14.568 9.459-14.568c.198-.351.518-.534.953-.534Zm18.194 24.14c-.663 0-1.182-.419-1.564-1.258l-9.42-22.31c-.13-.328-.191-.61-.191-.839 0-.534.305-.938.916-1.22.305-.153.61-.229.915-.229.61 0 1.037.343 1.297 1.03l8.352 19.754 8.124-19.754c.275-.687.71-1.03 1.297-1.03.275 0 .58.076.915.229.58.282.878.717.878 1.296 0 .283-.054.534-.153.763l-9.497 22.31c-.412.839-.984 1.258-1.716 1.258h-.153Zm18.039 0c-.534 0-.946-.129-1.221-.396-.282-.267-.419-.671-.419-1.205 0-2.083.42-3.829 1.259-5.24s1.762-2.487 2.784-3.227c1.014-.732 2.41-1.617 4.195-2.631 1.854-1.045 3.158-1.808 3.906-2.303.755-.496 1.35-1.045 1.792-1.64.45-.603.672-1.32.672-2.159 0-1.014-.115-1.8-.344-2.341a2.082 2.082 0 0 0-1.167-1.167c-.541-.229-1.327-.344-2.342-.344h-4.081c-1.22 0-2.113.168-2.669.496-.565.336-.916.915-1.068 1.754-.107.534-.282.931-.534 1.183-.26.259-.641.381-1.144.381-.534 0-.946-.145-1.221-.435-.282-.297-.397-.709-.343-1.243.274-1.808.992-3.142 2.136-4.02 1.144-.877 2.753-1.319 4.843-1.319h4.081c2.388 0 4.165.58 5.317 1.739 1.16 1.152 1.739 2.929 1.739 5.316 0 1.426-.351 2.654-1.052 3.684a9.1 9.1 0 0 1-2.533 2.532c-.991.664-2.471 1.556-4.424 2.67-1.48.839-2.578 1.51-3.303 2.006-.725.496-1.388 1.129-1.998 1.907-.611.77-1.007 1.708-1.183 2.799h12.586c.504 0 .901.137 1.183.419.274.283.419.672.419 1.183s-.145.907-.419 1.182c-.282.282-.679.419-1.183.419h-14.264Z" fill="#5BEBF3"/><path d="m66.064 74.566 17.004-8.254 17.004 8.254m-34.008 0 34.008 16.508V74.566m-34.008 0v16.508l51.012 24.763V65.838L83.068 49.804m17.004 24.762L66.064 58.058V8.535m85.02 41.27V33.296L134.08 41.55m17.004 8.254L134.08 41.55m17.004 8.254-34.008 16.508-34.008-16.508m51.012-8.254-17.004 8.254M83.068 33.296l17.004 8.254m-17.004-8.254v16.508m0-16.508 34.008 16.508m-17.004-8.254-17.004 8.254m17.004-8.254 17.004 8.254m0 0V33.296m0 0L66.065 8.534m51.011 24.762 51.09-24.8-15.129-7.343-35.961 17.456L81.271 1.153 66.064 8.534m85.021 57.779-17.004 8.254v16.508l34.008-16.508-17.004-8.254Zm17.002 25.162-51.012 23.293V65.174l34.008-15.058V33.742L117.075 49.27V32.896l51.012-23.292v49.123l-34.008 15.527V90.63l34.008-15.53v16.374Z" stroke="#5BEBF3" stroke-width="2" stroke-miterlimit="1.5" stroke-linecap="round" stroke-linejoin="round"/></svg>
